src/icons/copy-alt.svg

<svg viewBox="0 0 8 9" fill="none" xmlns="http://www.w3.org/2000/svg">
<path fill-rule="evenodd" clip-rule="evenodd" d="M7.27274 1.40268C7.27274 1.29401 7.20007 1.22201 7.09141 1.22201H3.45337C3.3447 1.22201 3.27203 1.29401 3.27203 1.40268V1.58334C3.27203 1.78201 3.1087 1.94468 2.9087 1.94468C2.70869 1.94468 2.54536 1.78201 2.54536 1.58334V1.22201C2.54536 0.825337 2.8727 0.5 3.2727 0.5H7.27274C7.67341 0.5 8.00008 0.82467 8.00075 1.22134V6.6414C8.00075 7.03873 7.67408 7.3634 7.27341 7.3634H6.18206C5.98273 7.3634 5.81806 7.2014 5.81806 7.00207C5.81806 6.8034 5.98273 6.6414 6.18206 6.6414H7.09141C7.20007 6.6414 7.27274 6.56873 7.27274 6.46073V1.40268ZM0 7.84741V2.95803C0 2.59936 0.33667 2.30602 0.748008 2.30602H4.86205C5.27339 2.30602 5.61072 2.59936 5.61072 2.95803V7.84741C5.61072 8.20675 5.27339 8.50008 4.86205 8.50008H0.748008C0.33667 8.50008 0 8.20675 0 7.84741Z" fill="currentColor"/>
</svg>

<svg viewBox="0 0 8 9" fill="none" xmlns="http://www.w3.org/2000/svg"><path fill-rule="evenodd" clip-rule="evenodd" d="M7.273 1.403c0-.109-.073-.181-.182-.181H3.453c-.108 0-.181.072-.181.18v.181a.363.363 0 01-.727 0v-.361c0-.397.328-.722.728-.722h4c.4 0 .727.325.728.721v5.42a.726.726 0 01-.728.722h-1.09a.364.364 0 01-.365-.36c0-.2.165-.362.364-.362h.91c.108 0 .18-.072.18-.18V1.403zM0 7.847V2.958c0-.359.337-.652.748-.652h4.114c.411 0 .749.293.749.652v4.89c0 .359-.338.652-.749.652H.748C.337 8.5 0 8.207 0 7.847z" fill="currentColor"/></svg>
